public/bgg-logo.svg

<svg xmlns="http://www.w3.org/2000/svg" width="80" height="38" viewBox="0 0 80 38">
  <g fill="none" fill-rule="evenodd">
    <path fill="#FFF" d="M41.6414127,20.8453307 C41.6414127,20.7138507 41.5623149,20.5562773 41.377073,20.5562773 L37.2504649,20.5562773 L37.2504649,24.470024 L41.377073,24.470024 C41.5623149,24.470024 41.6414127,24.338544 41.6414127,24.2073173 L41.6414127,20.8453307 Z M41.6414127,13.911344 C41.6414127,13.779864 41.5623149,13.622544 41.377073,13.622544 L37.2504649,13.622544 L37.2504649,17.2996773 L41.377073,17.2996773 C41.5623149,17.2996773 41.6414127,17.1681973 41.6414127,17.0103707 L41.6414127,13.911344 Z M32.6737649,27.8317573 L32.6737649,10.1032373 L43.6783083,10.1032373 C45.1334524,10.1032373 46.0591517,11.0223307 46.0591517,12.3353573 L46.0591517,16.2754507 C46.0591517,17.483344 45.2656223,18.6390507 43.6257465,19.0332373 C45.2656223,19.4269173 46.1915767,20.530184 46.1915767,21.7122373 L46.1915767,25.5730373 C46.1915767,26.9648507 45.2656223,27.8317573 43.8107333,27.8317573 L32.6737649,27.8317573 Z M57.7535044,16.9530667 L62.7609046,16.9530667 L62.7609046,25.8040267 C62.7609046,26.9597333 61.8619965,27.8263867 60.7242641,27.8263867 L51.7828972,27.8263867 C50.64542,27.8263867 49.7194656,26.9597333 49.7194656,25.8040267 L49.7194656,12.09388 C49.7194656,11.01696 50.64542,10.0978667 51.7828972,10.0978667 L62.7609046,10.0978667 L62.7609046,13.9062267 L54.5602501,13.9062267 C54.4280803,13.9062267 54.2959104,14.0374533 54.2959104,14.19528 L54.2959104,23.7031333 C54.2959104,23.8604533 54.4280803,23.9655867 54.5602501,23.9655867 L58.2640678,23.9655867 C58.4490546,23.9655867 58.5549435,23.8604533 58.5549435,23.7031333 L58.5549435,20.7087333 L56.1478193,20.7087333 L57.7535044,16.9530667 Z M74.3228322,16.9530667 L79.3304876,16.9530667 L79.3304876,25.8040267 C79.3304876,26.9597333 78.4313244,27.8263867 77.2938472,27.8263867 L68.3524802,27.8263867 C67.2147479,27.8263867 66.2890486,26.9597333 66.2890486,25.8040267 L66.2890486,12.09388 C66.2890486,11.01696 67.2147479,10.0978667 68.3524802,10.0978667 L79.3304876,10.0978667 L79.3304876,13.9062267 L71.1298332,13.9062267 C70.9976633,13.9062267 70.8652383,14.0374533 70.8652383,14.19528 L70.8652383,23.7031333 C70.8652383,23.8604533 70.9976633,23.9655867 71.1298332,23.9655867 L74.8333957,23.9655867 C75.0186376,23.9655867 75.1245266,23.8604533 75.1245266,23.7031333 L75.1245266,20.7087333 L72.7171472,20.7087333 L74.3228322,16.9530667 Z"/>
    <polygon fill="#FF5100" points="24.87 7.01 21.107 8.035 24.792 0 .9 8.794 2.206 19.327 0 21.454 6.577 37.93 20.558 32.779 25.418 21.37 23.331 19.358"/>
  </g>
</svg>

<svg width="26" height="38" xmlns="http://www.w3.org/2000/svg">

 <g>
  <title>Layer 1</title>
  <g id="svg_1" fill-rule="evenodd" fill="none">
   <path id="svg_2" d="m41.64141,20.84533c0,-0.13148 -0.0791,-0.28905 -0.26434,-0.28905l-4.12661,0l0,3.91374l4.12661,0c0.18524,0 0.26434,-0.13148 0.26434,-0.2627l0,-3.36199zm0,-6.93399c0,-0.13148 -0.0791,-0.2888 -0.26434,-0.2888l-4.12661,0l0,3.67714l4.12661,0c0.18524,0 0.26434,-0.13148 0.26434,-0.28931l0,-3.09903zm-8.96765,13.92042l0,-17.72852l11.00455,0c1.45514,0 2.38084,0.91909 2.38084,2.23212l0,3.94009c0,1.20789 -0.79353,2.3636 -2.4334,2.75779c1.63987,0.39368 2.56583,1.49694 2.56583,2.679l0,3.8608c0,1.39181 -0.92596,2.25872 -2.38085,2.25872l-11.13697,0zm25.07974,-10.87869l5.0074,0l0,8.85096c0,1.1557 -0.8989,2.02236 -2.03664,2.02236l-8.94136,0c-1.13748,0 -2.06343,-0.86666 -2.06343,-2.02236l0,-13.71015c0,-1.07692 0.92595,-1.99601 2.06343,-1.99601l10.978,0l0,3.80836l-8.20065,0c-0.13217,0 -0.26434,0.13122 -0.26434,0.28905l0,9.50785c0,0.15732 0.13217,0.26246 0.26434,0.26246l3.70382,0c0.18498,0 0.29087,-0.10514 0.29087,-0.26246l0,-2.9944l-2.40712,0l1.60568,-3.75566zm16.56933,0l5.00766,0l0,8.85096c0,1.1557 -0.89917,2.02236 -2.03664,2.02236l-8.94137,0c-1.13773,0 -2.06343,-0.86666 -2.06343,-2.02236l0,-13.71015c0,-1.07692 0.9257,-1.99601 2.06343,-1.99601l10.97801,0l0,3.80836l-8.20066,0c-0.13217,0 -0.26459,0.13122 -0.26459,0.28905l0,9.50785c0,0.15732 0.13242,0.26246 0.26459,0.26246l3.70357,0c0.18524,0 0.29113,-0.10514 0.29113,-0.26246l0,-2.9944l-2.40738,0l1.60568,-3.75566z" fill="#FFF"/>
   <polygon id="svg_3" points="24.87 7.01 21.107 8.035 24.792 0 .9 8.794 2.206 19.327 0 21.454 6.577 37.93 20.558 32.779 25.418 21.37 23.331 19.358" fill="#FF5100"/>
  </g>
 </g>
</svg>
